X: 5
T: UYEASOOND BAIRNS
S: Cindy Ritch, Uyeasound
R: waltz
B: Haand me doon da fiddle, 1979
Z: 2012 John Chambers <jc:trillian.mit.edu>
M: 3/4
L: 1/4
K: D
A |:\
d2d | f2d | g2e | c2A | d2f | e2d | e3- | e2A |
d2d | f2d | g2e | c2A | d2d | e2c | d3- | d2 :|
f/g/ |\
a2g | fa2 | g2e | a2g | f2d | g2f | fe2- | e2f/g/ |
a2g | fa2 | g2f | e2A | d2d | e2c | d3- | d2f/g/ |
a2g | fa2 | g2f | e2A | d2d | g2f | fe2- | e2A |
d2d | f2d | g2e | c2A | d2d | e2c | d3- | d2z |]
%%begintext align
%%endtext

%%sep 2 1 500
%%sep 1 1 500

